X: 4558
T: Boston-Sligo, The
R: reel
M: 4/4
K: Dmajor
|:fa ~a2 bafb|afef dBBB|fa ~a2 bafb|afef efde|
fa ~a2 bafb|afef dBBA|DEFG B2 dB|1 AFEF D4:|2 AFEF D3A||
|:BAFA B2 dB|AFFD ED B,2|BAFA B2 dB|AFDF E3A|
BAFA B2 dB|AFFD ED B,2|DA,A,A, DEFA|1 dBAF D3A:|2 dBAF D2 de||

